X: 1980
T: Yegâh Seyir
C: Erol Bingöl
O: Turkey
F: http://compmusic.upf.edu/node/140
N: yegah--seyir--sofyan--1--erol_bingol
N: makam= yegah
N: form= seyir
N: usul= sofyan = 4/4
M: 4/4
L: 1/16
K: C _2/4B ^f  
Q: 1/4=60
%%MIDI tuningsystem comma53
A4 d4 d4 e4  | d2cB c2d2 d8  | d3e ^3/4f2g2 a4 g2f2  | \
w:   |   |   | 
^3/4f3e efed d8  | 
w:   | 
A2d4e2 d2c2 =B2A2  | A2=B2 A2G2 ^3/4F8  | \
w:   |   | 
^3/4F4 E2F2 G2A2 G2F2  | ^3/4F3E EFED D8  | 
w:   |   | 
|


